icon-themes/breeze_svg/cmd/32/thesaurusdialog.svg

<svg viewBox="0 0 32 32" xmlns="http://www.w3.org/2000/svg"><path d="m7 4v3h-3v5h3v8h-3v5h3v3h10v-1h-4v-22h14v20h1v-21zm1 1h4v22h-4z" fill="#4d4d4d"/><path d="m19 26c-.5523 0-1 .44772-1 1s.4477 1 1 1 1-.44772 1-1-.4477-1-1-1zm4 0c-.5523 0-1 .44772-1 1s.4477 1 1 1 1-.44772 1-1-.4477-1-1-1zm4 0c-.5523 0-1 .44772-1 1s.4477 1 1 1 1-.44772 1-1-.4477-1-1-1z" fill="#f47750"/></svg>

<svg xmlns="http://www.w3.org/2000/svg" viewBox="0 0 32 32">
 <path 
     style="fill:#4d4d4d" 
     d="M 7 4 L 7 7 L 4 7 L 4 12 L 7 12 L 7 20 L 4 20 L 4 25 L 7 25 L 7 28 L 17 28 L 17 27 L 13 27 L 13 5 L 27 5 L 27 25 L 28 25 L 28 4 L 7 4 z M 8 5 L 12 5 L 12 27 L 8 27 L 8 5 z "
     />
 <path 
     style="fill:#f47750" 
     d="M 19 26 C 18.4477 26 18 26.44772 18 27 C 18 27.55228 18.4477 28 19 28 C 19.5523 28 20 27.55228 20 27 C 20 26.44772 19.5523 26 19 26 z M 23 26 C 22.4477 26 22 26.44772 22 27 C 22 27.55228 22.4477 28 23 28 C 23.5523 28 24 27.55228 24 27 C 24 26.44772 23.5523 26 23 26 z M 27 26 C 26.4477 26 26 26.44772 26 27 C 26 27.55228 26.4477 28 27 28 C 27.5523 28 28 27.55228 28 27 C 28 26.44772 27.5523 26 27 26 z "
     />
</svg>
